X: 733
T: the Primrose Lass   #2
R: reel
%S: s:2 b:16(6+6)
B: Francis O'Neill: "The Dance Music of Ireland" (1907) #733
Z: Frank Nordberg - http://www.musicaviva.com
F: http://www.musicaviva.com/abc/tunes/ireland/oneill-1001/0733/oneill-1001-0733-1.abc
N: Compacted via repeats and multiple endings (and ignoring a few slurs) [JC]
M: C|
L: 1/8
K: G
|: B2BA G2G(E | DE)GA (BA)A2 |[1 dBAB G(AGE) | DEG(A BG)G2 :|[2 d(cBA) GFE(F | DE)GA BGG2 :| 
|: Bdg(d ed)g(d | Bd)gd eA3 |[1 Bdg(d ed)gd | B(dAc) (BG)G2 :|[2 Bde(f ga)g(e | dB)Ac BGG2 :| 
N:This is one of the few tunes in O'Neill's 1001 that is almost (although not quite) pentatonic.
